international/images/icons/bonnes-conditions-de-travail.svg

<svg xmlns="http://www.w3.org/2000/svg" width="554.625" height="554.625" viewBox="0 0 554.625 554.625"><g fill="#fff"><path d="M181.688 420.75h-143.438v57.375h143.438v-57.375zm-68.133 38.844c-6.598 0-11.953-5.354-11.953-11.953 0-6.598 5.355-11.953 11.953-11.953s11.953 5.355 11.953 11.953-5.355 11.953-11.953 11.953zM181.688 315.562h-143.438v57.375h143.438v-57.375zm-68.133 38.843c-6.598 0-11.953-5.354-11.953-11.953 0-6.598 5.355-11.953 11.953-11.953s11.953 5.355 11.953 11.953c0 6.599-5.355 11.953-11.953 11.953zM219.938 277.312h-219.938v267.751h28.688v-28.688h162.562v28.688h28.688v-191.251h306v191.25h28.688v-267.75h-334.688zm-28.688 210.376h-162.562v-76.5h162.562v76.5zm0-105.188h-162.562v-76.5h162.562v76.5zm334.688-47.812h-306v-28.688h306v28.688zM306 219.938v28.687h-19.125v19.125h143.437v-19.125h-19.124v-28.687zM516.375 9.562h-306v200.812h306v-200.812zm-153 186.469c-6.599 0-11.953-5.354-11.953-11.953 0-6.598 5.354-11.953 11.953-11.953 6.598 0 11.952 5.355 11.952 11.953 0 6.599-5.354 11.953-11.952 11.953zm133.875-43.031h-267.75v-124.312h267.75v124.312z"/></g></svg>

<?xml version="1.0" encoding="utf-8"?>
<!-- Generator: Adobe Illustrator 16.0.0, SVG Export Plug-In . SVG Version: 6.00 Build 0)  -->
<!DOCTYPE svg PUBLIC "-//W3C//DTD SVG 1.1//EN" "http://www.w3.org/Graphics/SVG/1.1/DTD/svg11.dtd">
<svg version="1.1" id="Capa_1" xmlns="http://www.w3.org/2000/svg" xmlns:xlink="http://www.w3.org/1999/xlink" x="0px" y="0px"
	 width="554.625px" height="554.625px" viewBox="0 0 554.625 554.625" enable-background="new 0 0 554.625 554.625"
	 xml:space="preserve">
<g>
	<path fill="#FFFFFF" d="M181.688,420.75H38.25v57.375h143.438V420.75z M113.555,459.594c-6.598,0-11.953-5.354-11.953-11.953
		c0-6.598,5.355-11.953,11.953-11.953s11.953,5.355,11.953,11.953S120.153,459.594,113.555,459.594z"/>
	<path fill="#FFFFFF" d="M181.688,315.562H38.25v57.375h143.438V315.562z M113.555,354.405c-6.598,0-11.953-5.354-11.953-11.953
		c0-6.598,5.355-11.953,11.953-11.953s11.953,5.355,11.953,11.953C125.508,349.051,120.153,354.405,113.555,354.405z"/>
	<path fill="#FFFFFF" d="M219.938,277.312h-19.125H0v210.375v28.688v28.688h28.688v-28.688H191.25v28.688h28.688v-28.688v-28.688
		V353.812h306v191.25h28.688v-191.25v-19.125V306v-28.688h-28.688H219.938z M191.25,487.688H28.688v-76.5H191.25V487.688z
		 M191.25,382.5H28.688V306H191.25V382.5z M525.938,334.688h-306V306h306V334.688z"/>
	<polygon fill="#FFFFFF" points="306,219.938 306,248.625 286.875,248.625 286.875,267.75 430.312,267.75 430.312,248.625 
		411.188,248.625 411.188,219.938 	"/>
	<path fill="#FFFFFF" d="M516.375,9.562h-306v200.812h306V9.562z M363.375,196.031c-6.599,0-11.953-5.354-11.953-11.953
		c0-6.598,5.354-11.953,11.953-11.953c6.598,0,11.952,5.355,11.952,11.953C375.327,190.677,369.973,196.031,363.375,196.031z
		 M497.25,153H229.5V28.688h267.75V153z"/>
</g>
</svg>
